packages/icons/src/diamond-arrow-turn-right.svg

<svg width="24" height="24" viewBox="0 0 24 24" fill="none" xmlns="http://www.w3.org/2000/svg">
<path d="M22.4299 10.59L13.4199 1.57999C12.6699 0.829989 11.3499 0.819989 10.5899 1.57999L1.58988 10.58C0.809883 11.36 0.809883 12.62 1.58988 13.4L10.5899 22.4C10.9799 22.79 11.4899 22.98 11.9999 22.98C12.5099 22.98 13.0199 22.79 13.4099 22.4L22.3999 13.41C23.1899 12.65 23.1999 11.39 22.4299 10.59ZM12.0099 20.99L3.00988 11.99L12.0099 2.98999L21.0099 11.99L12.0099 20.99ZM7.99988 11V15H9.99988V12H13.9999V14.5L17.4999 11L13.9999 7.49999V9.99999H8.99988C8.44988 9.99999 7.99988 10.45 7.99988 11Z" fill="black"/>
</svg>

<svg xmlns="http://www.w3.org/2000/svg" width="24" height="24" fill="none" viewBox="0 0 24 24">
  <path fill="#000" d="m22.43 10.59-9.01-9.01c-.75-.75-2.07-.76-2.83 0l-9 9c-.78.78-.78 2.04 0 2.82l9 9c.39.39.9.58 1.41.58.51 0 1.02-.19 1.41-.58l8.99-8.99c.79-.76.8-2.02.03-2.82Zm-10.42 10.4-9-9 9-9 9 9-9 9ZM8 11v4h2v-3h4v2.5l3.5-3.5L14 7.5V10H9c-.55 0-1 .45-1 1Z"/>
</svg>
